X:0736
M:C|
L:1/8
Q:1/2=108
K:D
b|a2    fd e2cA|d2AF GEEb|a2    fd e2cA|dABG FDD:|
  F/G/A Ad BdAd|GdFd eEEG|FAdf     eAdb|afeg fdd|]

